X: 2
T: The Wren's Nest
R: jig
M: 6/8
L: 1/8
K: Edor
|: D | GAB ded | cAA A2c | BGE EFG | AFD AFD | GAB ded | cAA ABc | BGE AFD | GEE E2D :|EGe deB | cAA ~B2A | GAB ded | cAA BGD | EGe deB | cAA ~B2A | GAB cAB | GEE FED :||: B,DE GED | B,EE E2D | B,DE GAB | AFD FED | B,DE GED | B,EE E2F | GAB cAB | GEE E2 :|


Tune 119	Setting 119

